X:1
T:Tony's Quadrille
M:6/8
L:1/8
Q:1/4=180
C:Bob McQuillen
S:transcribed by Dick Atlee from Hand it Down (Avocet CD 105)
R:Jig
K:G
"D7" B,2 C | "G" DB,D EDB, | DGB d2 D | DB,D GBd | "D7" c2 B A2 G |
FGA AFD | !
FGA A2 d | fde fga | "G" b2 g "D7" dBc |
"G" dBd edB | GBd g2 f | gba gfg | !
"C" a2 g e2 f | gag "D7" f2 e | "G" dge d2B |
"C" cde "D7" fga | "G" g z2 "B7" g2 f | !
K:Em
"Em" EFG GFE | B2 G E2 B, | EFG GFE | "B7" F2 G A2 G | FGA AGF | !
BcB B2 c | BcB AGA | "Em" BGE E2 e | edB dBA | BGE E2 e | !
edB "G" ded | "Am" c2 B "D7" A2 B |
"Am" cde ABc | "Em" B2 B GFE | "B7" BcB AGF | "Em" E2 z ||
